src/assets/img/components/socials/fWhite.svg

<svg width="17" height="17" viewBox="0 0 17 17" fill="none" xmlns="http://www.w3.org/2000/svg">
<path d="M8.8573 4.69556C6.59924 4.69556 4.72827 6.53427 4.72827 8.82459C4.72827 11.1149 6.56698 12.9536 8.8573 12.9536C11.1476 12.9536 12.9863 11.0827 12.9863 8.82459C12.9863 6.56652 11.1154 4.69556 8.8573 4.69556ZM8.8573 11.4697C7.40569 11.4697 6.21214 10.2762 6.21214 8.82459C6.21214 7.37297 7.40569 6.17943 8.8573 6.17943C10.3089 6.17943 11.5025 7.37297 11.5025 8.82459C11.5025 10.2762 10.3089 11.4697 8.8573 11.4697Z" fill="white"/>
<path d="M13.1501 5.5343C13.6667 5.5343 14.0856 5.11547 14.0856 4.59881C14.0856 4.08216 13.6667 3.66333 13.1501 3.66333C12.6334 3.66333 12.2146 4.08216 12.2146 4.59881C12.2146 5.11547 12.6334 5.5343 13.1501 5.5343Z" fill="white"/>
<path d="M15.5669 2.17976C14.7281 1.30879 13.5346 0.857178 12.1798 0.857178H5.5346C2.72815 0.857178 0.857178 2.72815 0.857178 5.5346V12.1475C0.857178 13.5346 1.30879 14.7281 2.21202 15.5991C3.08298 16.4378 4.24427 16.8572 5.56686 16.8572H12.1475C13.5346 16.8572 14.6959 16.4056 15.5346 15.5991C16.4056 14.7604 16.8572 13.5669 16.8572 12.1798V5.5346C16.8572 4.17976 16.4056 3.01847 15.5669 2.17976ZM15.4378 12.1798C15.4378 13.1798 15.083 13.9862 14.5023 14.5346C13.9217 15.083 13.1152 15.3733 12.1475 15.3733H5.56686C4.59911 15.3733 3.79266 15.083 3.21202 14.5346C2.63137 13.954 2.34105 13.1475 2.34105 12.1475V5.5346C2.34105 4.56685 2.63137 3.7604 3.21202 3.17976C3.7604 2.63137 4.59911 2.34105 5.56686 2.34105H12.212C13.1798 2.34105 13.9862 2.63137 14.5669 3.21202C15.1152 3.79266 15.4378 4.59911 15.4378 5.5346V12.1798Z" fill="white"/>
</svg>

<svg width="17" height="17" fill="none" xmlns="http://www.w3.org/2000/svg"><path d="M8.857 4.696a4.137 4.137 0 0 0-4.129 4.129 4.116 4.116 0 0 0 4.13 4.129 4.137 4.137 0 0 0 4.128-4.13c0-2.257-1.87-4.128-4.129-4.128Zm0 6.774a2.657 2.657 0 0 1-2.645-2.645 2.657 2.657 0 0 1 2.645-2.646 2.657 2.657 0 0 1 2.646 2.646 2.657 2.657 0 0 1-2.646 2.645Zm4.293-5.936a.936.936 0 1 0 0-1.87.936.936 0 0 0 0 1.87Z" fill="#fff"/><path d="M15.567 2.18C14.728 1.309 13.535.857 12.18.857H5.535C2.728.857.857 2.728.857 5.535v6.613c0 1.387.452 2.58 1.355 3.451.871.839 2.032 1.258 3.355 1.258h6.58c1.388 0 2.549-.451 3.388-1.258.87-.839 1.322-2.032 1.322-3.42V5.536c0-1.355-.451-2.517-1.29-3.355Zm-.13 10c0 1-.354 1.806-.935 2.355-.58.548-1.387.838-2.354.838H5.567c-.968 0-1.774-.29-2.355-.838-.58-.581-.871-1.387-.871-2.387V5.535c0-.968.29-1.775.871-2.355.548-.549 1.387-.839 2.355-.839h6.645c.968 0 1.774.29 2.355.871.548.58.87 1.387.87 2.323v6.645Z" fill="#fff"/></svg>
